X: 40065
T: Thrums Cairn, The
R: reel
M: 4/4
K: Amajor
e|A/A/A cA e/e/e cA|agfe ^decA|E/E/E GB dece|BeAe GeEe|
A/A/A cA e/e/e cA|agfe ^decA|fdge afed|cABG Aefg||
aAce Aece|Aece aeca|bBdf Bfdf|Bfdf bfdb|
aAce Aece|A/A/A ce aAce|fdge afed|cABG A||

